X:1
T:Chouteau, CMD
T:Chouteau, CMD
T:Bentley DeForest Ackley, 1910
T:Public Domain Courtesy of the Cyber Hymnal™
C:Bentley DeForest Ackley, 1910
Z:Public Domain
Z:Courtesy of the Cyber Hymnal™
%%score ( 1 2 ) ( 3 4 )
L:1/8
Q:1/4=90
M:3/4
K:Ab
V:1 treble 
V:2 treble 
V:3 bass 
V:4 bass 
V:1
 [CE]2 | [Ec]>[=D=B] [Ec]3 [E_B] | [FA][DF] [CE]2 [CA]2 | [DG]3 [DG] [CA][DB] | [CA]4 [CE]2 | %5
 [Ec]>[=D=B] [Ec]3 [E_B] | [FA][DF] [CE]2 [CA]2 | [DG][DE] [Ec]3 [DB] | [CA]4 (E[Ed]) | %9
 [Ec]>[C=A] !fermata![DB]2 ([DE][Ec]) | [DB]>[CA] !fermata![CA]2 (EA) | [DG]3 [DG] [DF]E | %12
 [Ec]4 (E[Ed]) | [Ec]>[C=A] !fermata![DB]2 ([DE][Ec]) | [DB][DG] [CA]2 [=B,F]2 | %15
 [CE]3 [Ec] [Ec]>[DB] | [CA]4 |] %17
V:2
 x2 | x6 | x6 | x6 | x6 | x6 | x6 | x6 | x4 E x | x6 | x4 C2 | x5 E | x4 E x | x6 | x6 | x6 | x4 |] %17
V:3
 [A,,A,]2 | [A,,A,]>[A,,A,] [A,,A,]3 [C,A,] | [D,D][F,A,] A,2 [A,,A,]2 | %3
 [E,B,]3 [E,B,] [E,A,][E,G,] | [A,,A,]4 [A,,A,]2 | [A,,A,]>[A,,A,] [A,,A,]3 [C,A,] | %6
 [D,D][F,A,] A,2 [A,,A,]2 | [E,A,][E,G,] [E,A,]3 [E,G,] | [A,,A,]4 ([E,G,][E,B,]) | %9
 [E,A,]>[E,^F,] !fermata![E,G,]2 ([E,G,][E,G,]) | [A,,A,]>[A,,A,] !fermata![A,,A,]2 [A,,A,]2 | %11
 [E,B,]3 [E,B,] [F,A,][G,B,] | A,4 ([E,G,][E,B,]) | %13
 [E,A,]>[E,^F,] !fermata![E,G,]2 ([E,G,][E,G,]) | [E,G,][=E,B,] [F,A,]2 [=D,B,]2 | %15
 [E,A,]3 [E,A,] [E,G,]>E, | [A,,E,]4 |] %17
V:4
 x2 | x6 | x2 A,2 x2 | x6 | x6 | x6 | x2 A,2 x2 | x6 | x6 | x6 | x6 | x6 | A,4 x2 | x6 | x6 | %15
 x11/2 E,/ | x4 |] %17

